priv/static/svgs/icons_new/sport-bowls.svg

<svg width="32" height="32" viewBox="0 0 32 32" fill="none" xmlns="http://www.w3.org/2000/svg">
<path d="M26.5 16C26.5 21.799 21.799 26.5 16 26.5C10.201 26.5 5.5 21.799 5.5 16C5.5 10.201 10.201 5.5 16 5.5C21.799 5.5 26.5 10.201 26.5 16Z" stroke="black" stroke-miterlimit="10"/>
<path d="M24.5312 15.625C24.5312 18.3692 22.3906 20.5938 19.75 20.5938C17.1094 20.5938 14.9688 18.3692 14.9688 15.625C14.9688 12.8808 17.1094 10.6562 19.75 10.6562C22.3906 10.6562 24.5312 12.8808 24.5312 15.625Z" stroke="black" stroke-miterlimit="10"/>
<path d="M26.3125 15.625C26.3125 20.2331 22.8917 23.9688 18.6719 23.9688C14.4521 23.9688 11.0312 20.2331 11.0312 15.625C11.0312 11.0169 14.4521 7.28125 18.6719 7.28125C22.8917 7.28125 26.3125 11.0169 26.3125 15.625Z" stroke="black" stroke-miterlimit="10"/>
<path d="M20.0312 13.375L20.5364 14.9297H22.1711L20.8486 15.8906L21.3538 17.4453L20.0312 16.4844L18.7087 17.4453L19.2139 15.8906L17.8914 14.9297H19.5261L20.0312 13.375Z" stroke="black" stroke-miterlimit="10"/>
</svg>

<svg width="32" height="32" viewBox="0 0 32 32" fill="none" xmlns="http://www.w3.org/2000/svg">
  <symbol id="item" viewBox="0 0 32 32" stroke-width="1" fill="none">
    <path d="M26.5 16c0 5.799-4.701 10.5-10.5 10.5S5.5 21.799 5.5 16 10.201 5.5 16 5.5 26.5 10.201 26.5 16Z" stroke="currentColor" stroke-miterlimit="10"/><path d="M24.531 15.625c0 2.744-2.14 4.969-4.781 4.969-2.64 0-4.781-2.225-4.781-4.969s2.14-4.969 4.781-4.969c2.64 0 4.781 2.225 4.781 4.969Z" stroke="currentColor" stroke-miterlimit="10"/><path d="M26.313 15.625c0 4.608-3.421 8.344-7.641 8.344-4.22 0-7.64-3.736-7.64-8.344 0-4.608 3.42-8.344 7.64-8.344s7.64 3.736 7.64 8.344Z" stroke="currentColor" stroke-miterlimit="10"/><path d="m20.031 13.375.505 1.555h1.635l-1.322.96.505 1.555-1.323-.96-1.322.96.505-1.554-1.323-.961h1.635l.505-1.555Z" stroke="currentColor" stroke-miterlimit="10"/>
  </symbol>
</svg>
